X: 336
T: Bin Derdim Vardı
C: Müslim Aydoğdu
O: Turkey
F: http://compmusic.upf.edu/node/140
N: gerdaniye--turku--sofyan--bin_derdim--maras
N: makam= gerdaniye
N: form= turku
N: usul= sofyan = 4/4
M: 4/4
L: 1/16
K: C _2/4B ^3/4f  
Q: 1/4=105
%%MIDI tuningsystem comma53
BcdB cBc2 Bdc4B2  | c3B dccB BAA4G2  | 
w:  ARANAĞME  |   | 
BcdB cBc2 Bdc4B2  | c3B dccB BAA4z2  | 
w:   |   | 
f2g2 g2g2 f2{a}g4f2  | g2f2 f2{a}gf f{g}ee4d2  | \
w:  Bin  der dim  va rı *  dı   |  bin  *  da *  ha  *  ol *  *  dı    | 
d3A gfg2 f2{g}e4d2  | 
w:  SAZ  | 
d3A gfg2 f2{g}e4d2  | f2g2 g2g2 f2{a}g4f2  | \
w:  SAZ  |  Der di min  der ma *  nı   | 
g3f f2{a}gf f{g}ee4d2  | 
w:  a *  man  *  ha  *  a *  *  man   | 
g3f f2{a}gf f{g}ee4d2  | d3A gfg2 fge4d2  | \
w:  a *  man  *  ha  *  a *  *  man    |  SAZ  | 
d3A gfg2 fge4d2  | 
w:  SAZ  | 
f2g2 g2g2 f2{g}g4f2  | g3f f2{a}gf f{g}ee4d2  | \
w:  Gü lis tan  bez mi *  nin   |  gül *  le *  ri  *  sol *  *  dı   | 
g3f f2{a}gf f{g}ee4d2  | 
w:  gül *  le *  ri  *  sol *  *  dı    | 
d3A gfg2 fge4d2  | d3A gfg2 fge4d2  | \
w:  SAZ  |  SAZ  | 
f2g2 a2a2 a2a6  | 
w:  Gon ca yı  han da nım   | 
a4 c'2c'b b2a4ba  | a2g4ag g2f4gf  | \
w:  a man  ha  *  a man    |  Am man_ *  *  am man_  | 
f2e4=fe e2d4ed  | 
w:  am man_ *  *  am man_  | 
d2c4dc c2B4cB  | B2A6 A2A6  | B2c2 cBc2 Bdc4B2  | 
w:  am man_ *  *  am man_  |  am man_ am man    |  Ha lim de  *  gal ma *  dı   | 
c3B dccB BcA4G2  | BcdB cBc2 Bdc4B2  | 
w:  â *  râm_ *  u  *  ga *  rar    |  SAZ  | 
c3B dccB BcA4G2  | B2c2 cBc2 Bdc4B2  | \
w:   |  Gün  be  gün_ *  e ri *  şir   | 
c3B dccB BcA4G2  | 
w:  öm *  rü *  me  *  za *  rar    | 
BcdB cBc2 Bdc4B2  | c3B dccB BcA4G2  | 
w:  SAZ  |   | 
B2c2 cBc2 Bdc4B2  | c3B dccB BcA4G2  | \
w:  Me det  ey_ *  e fen *  dim   |  sen  *  ver *  me  *  me *  lâl    | 
c2d2 e2e2 e2e6  | 
w:  Gön lü mün  fer mâ nı   | 
e3d =f2fe edd4ed  | dcc4dc cBB4cB  | \
w:  a *  man  ha  *  a *  man    |  Am *  man  ha  *  a *  man_  | 
BAA4A2 A6z2  | 
w:  am *  man_ am man    | 
BcdB cBc2 Bdc4B2  | c3B dccB BAA4G2  | 
w:  ARANAĞME  |   | 
BcdB cBc2 Bdc4B2  | c3B dccB BAA4z2  | 
w:   |   | 
f2g2 g2g2 f2{a}g4f2  | g2f2 f2{a}gf f{g}ee4d2  | \
w:  Bin  der dim  va rı *  dı   |  bin  *  da *  ha  *  ol *  *  dı    | 
d3A gfg2 f2{g}e4d2  | 
w:  SAZ  | 
d3A gfg2 f2{g}e4d2  | f2g2 g2g2 f2{a}g4f2  | \
w:  SAZ  |  Der di min  der ma *  nı   | 
g3f f2{a}gf f{g}ee4d2  | 
w:  a *  man  *  ha  *  a *  *  man   | 
g3f f2{a}gf f{g}ee4d2  | d3A gfg2 fge4d2  | \
w:  a *  man  *  ha  *  a *  *  man    |  SAZ  | 
d3A gfg2 fge4d2  | 
w:  SAZ  | 
f2g2 g2g2 f2{g}g4f2  | g3f f2{a}gf f{g}ee4d2  | \
w:  Gü lis tan  bez mi *  nin   |  gül *  le *  ri  *  sol *  *  dı   | 
g3f f2{a}gf f{g}ee4d2  | 
w:  gül *  le *  ri  *  sol *  *  dı    | 
d3A gfg2 fge4d2  | d3A gfg2 fge4d2  | \
w:  SAZ  |  SAZ  | 
f2g2 a2a2 a2a6  | 
w:  Gon ca yı  han da nım   | 
a4 c'2c'b b2a4ba  | a2g4ag g2f4gf  | \
w:  a man  ha  *  a man    |  Am man_ *  *  am man_  | 
f2e4=fe e2d4ed  | 
w:  am man_ *  *  am man_  | 
d2c4dc c2B4cB  | B2A6 A2A6  | B2c2 cBc2 Bdc4B2  | 
w:  am man_ *  *  am man_  |  am man_ am man    |  Ha lim de  *  gal ma *  dı   | 
c3B dccB BcA4G2  | BcdB cBc2 Bdc4B2  | 
w:  â *  râm_ *  u  *  ga *  rar    |  SAZ  | 
c3B dccB BcA4G2  | B2c2 cBc2 Bdc4B2  | \
w:   |  Gün  be  gün_ *  e ri *  şir   | 
c3B dccB BcA4G2  | 
w:  öm *  rü *  me  *  za *  rar    | 
BcdB cBc2 Bdc4B2  | c3B dccB BcA4G2  | 
w:  SAZ  |   | 
B2c2 cBc2 Bdc4B2  | c3B dccB BcA4G2  | \
w:  Me det  ey_ *  e fen *  dim   |  sen  *  ver *  me  *  me *  lâl    | 
c2d2 e2e2 e2e6  | 
w:  Gön lü mün  fer mâ nı   | 
e3d =f2fe edd4ed  | dcc4dc cBB4cB  | \
w:  a *  man  ha  *  a *  man    |  Am *  man  ha  *  a *  man_  | 
BAA4A2 A6z2  | 
w:  am *  man_ am man    | 
|


